X:755
T:Coilsfield House 
C:Joe Buchanan's Scottish Tome - Page 499.1
I:499 1
Z:Jo Wegstein
R:Slow Air
L:1/8
M:4/4
K:Gmaj
(GA) | B2 D2 G2 B,2 | G,6(AB) | (c2> A2) (B2 G2) | (F2 A2) D2> c2 |
(cB).A.G (GF).E.D | G4 E2 C2 | B,2 G2 A,2 F2 | G2> G,2 G,2 :|
(d2> B2) d2 B2 | (cd) e2> A2 (B/c/) | d2 G2 F2 G2 | (AG).F.E D2 (Bc) |
(d2> e2) d2 B2 | (cd) e2 (ef) g2 | (gag) (fd).e.f | g4G2 (ga) |
b2 g2 d2 B2 | (cd) e2 A2 (Bc) | d2 G2 F2 G2 | (AG).F.E D2 c2 |
(BG).D.B, C2> (D/E/) | A,6 (DC) | B,2 G2 A,2 F2 | G3 G,2 G,2 |]

